X:340
T: Gregory's
T: Cornph\'iopa Ghr\'eag\'ora
S: B.Breathnach:"Ceol Rince na hEireann" IV/217
Z: B.Black
L: 1/8
M: 4/4
R: hornpipe
K: D
(3ABc|dA (3FAF D2 (3ABc|dA (3FAF E2 ef|gfed cdef|\
e2 EE E2 (3ABc|
dA (3FAF D2 (3ABc|dA (3FAF E2 ef|gfed cdec|d2 dd d2 :|
FE|DEDF AFDF|Adce dcBA|Bdce dfed|cdef e2 FE|
DEDF AFDF|Adce dcBA|gfed cdec|d2 dd d2 :|
